X:450
T: Bean a Ti ar Lar
S: "Music from Ireland 1" (Bulmer & Sharpley)
Z: B.Black
R: reel
M: 4/4
L: 1/8
K: D
B|: AGFE D2 FD|GEFE DB B2|AGFE F2 FD|E2 cA BGEB|
AGFE D2 FD|GEFE DB B2|AGFE F2 FD|E2 cA BGEd ||
cdec A2 Ad|cdec AFEd|cdec A2 AF|EccA BGEd|
cdec A2 Ad|cdec AFEd|cdeg f2 ec|ABcA BdcB||
